X: 342
T: Bir Acem Oldu Aşîrân
C: Ahmet Avni Konuk
O: Turkey
F: http://compmusic.upf.edu/node/140
N: acemasiran--kupe--aksaksemai--bir--ahmet_avni_konuk
N: makam= acemasiran
N: form= kupe
N: usul= aksaksemai = 10/8
M: 10/8
L: 1/16
K: C _B   
Q: 1/4=102
%%MIDI tuningsystem comma53
f4 a2g2 gfef gef4z2  | d4 e2f2 {g}feed c^cd4z2  | 
w:  Bir  A cem  *  *  *  *  *  *  ol  |  du  A şî *  *  *  *  *  *  *  rân   | 
f4 f2c4d2 e2f2 g2a2  | aba2 g2gf fede fge2 f2z2  | 
w:  per de sin *  *  de   |  nağ *  *  me sâz    | 
f4 a2g2 gff2 fee2 d2dc  | c4 d2c2 {d}cBB2 BAAB c2z2  | 
w:  Bu  ma ka *  *  *  *  *  mı   |  din le yen *  *  *  *  *  *  ler   | 
B4 d2c2 B2A2 G2cB AGF2  | GBA2 G2G2 GFEF GEF4z2  | 
w:  bul du  ga *  *  *  yet   |  ruh *  *  ne vâz    | 
|


